src/assets/tokens/ibgt-wgbera.svg

<svg width="192" height="128" viewBox="0 0 192 128" fill="none" xmlns="http://www.w3.org/2000/svg">
<g clip-path="url(#clip0_20189_75374)">
<path d="M64 128C99.3462 128 128 99.3462 128 64C128 28.6538 99.3462 0 64 0C28.6538 0 0 28.6538 0 64C0 99.3462 28.6538 128 64 128Z" fill="black"/>
<path d="M63.832 99.9631C62.8276 98.8963 61.9485 97.7179 61.212 96.4511C59.34 93.5071 56.204 86.5951 56.196 78.9951C49.576 82.8591 41.94 83.6111 38.428 83.4591C37.1025 83.457 35.7808 83.3176 34.484 83.0431C35.956 90.2111 39.6454 95.4431 45.552 98.7391C51.2854 101.939 57.3787 102.347 63.832 99.9631ZM87.592 68.4831C89.4844 66.0819 90.8242 63.2931 91.516 60.3151C92.3374 56.8831 92.3534 53.4365 91.564 49.9751L98.564 47.9911C99.1037 47.8555 99.6098 47.611 100.051 47.2725C100.493 46.9341 100.861 46.5089 101.132 46.0231C101.402 45.5371 101.569 45.0012 101.624 44.4482C101.679 43.8951 101.621 43.3367 101.452 42.8071C101.318 42.2675 101.075 41.7609 100.738 41.3187C100.401 40.8764 99.9768 40.5076 99.492 40.2351C99.0055 39.965 98.4689 39.7973 97.9151 39.7423C97.3614 39.6872 96.8022 39.746 96.272 39.9151L88.464 42.1311C85.8694 38.7951 83.196 36.3778 80.444 34.8791C77.692 33.3831 74.516 32.6125 70.916 32.5671L68.624 24.4871C68.4889 23.9478 68.245 23.4419 67.9073 23.0003C67.5695 22.5587 67.1451 22.1908 66.66 21.9191C66.1735 21.649 65.6369 21.4813 65.0831 21.4262C64.5294 21.3712 63.9702 21.43 63.44 21.5991C62.9011 21.7338 62.3954 21.9771 61.9538 22.3141C61.5122 22.6512 61.1441 23.0748 60.872 23.5591C60.6013 24.0454 60.4329 24.5819 60.3771 25.1356C60.3214 25.6894 60.3796 26.2487 60.548 26.7791L62.532 33.7791C59.2089 34.9111 56.2117 36.836 53.8 39.3871C51.8446 41.4244 50.292 43.813 49.224 46.4271L72.584 49.3071L87.592 68.4831ZM38.36 48.9551C34.2937 48.9705 30.4001 50.6006 27.5357 53.4868C24.6712 56.373 23.0707 60.2788 23.086 64.3451C23.1014 68.4114 24.7315 72.3051 27.6177 75.1695C30.5039 78.0339 34.4097 79.6345 38.476 79.6191H38.564C42.132 79.7871 50.808 78.8031 56.984 73.8071L69.248 52.7631L38.36 48.9551ZM60.264 75.8071L72.316 55.1271L91.144 79.2751C93.1623 82.8057 93.6955 86.9934 92.6261 90.917C91.5568 94.8407 88.9726 98.1788 85.442 100.197C81.9115 102.215 77.7238 102.749 73.8001 101.679C69.8765 100.61 66.5383 98.0257 64.52 94.4951L64.476 94.4151C62.568 91.4431 59.14 83.5751 60.264 75.8071Z" fill="url(#paint0_linear_20189_75374)"/>
<path d="M128 124C161.137 124 188 97.1371 188 64C188 30.8629 161.137 4 128 4C94.8629 4 68 30.8629 68 64C68 97.1371 94.8629 124 128 124Z" fill="white"/>
<path d="M125.04 0H130.305L130.79 0.025L131.165 0.05C148.05 0.895 164.265 8.63 175.495 21.27C171.55 21.555 167.645 21.165 163.72 21.685C156.865 15.965 148.705 11.865 139.97 9.965C130.005 7.76 119.4 8.35 109.755 11.69C103.345 13.895 97.42 17.31 92.205 21.63C88.255 21.205 84.245 21.45 80.27 21.37C83.6799 17.5499 87.5339 14.1509 91.75 11.245C101.565 4.45 113.135 0.645 125.04 0Z" fill="#D43939"/>
<path d="M175.495 21.27L175.555 21.33C181.215 27.6652 185.564 35.0593 188.35 43.085C185.33 42.68 182.285 43.005 179.235 42.825C175.855 34.625 170.445 27.44 163.72 21.685C167.645 21.165 171.55 21.555 175.495 21.27ZM80.2699 21.37C84.2449 21.45 88.2549 21.205 92.2049 21.63C85.4049 27.34 80.0349 34.685 76.5949 42.87C74.7299 42.88 72.8649 42.89 70.9999 42.91C69.8349 42.885 68.7899 43.03 67.7649 42.35C70.5699 34.64 74.7999 27.48 80.2699 21.37ZM107.095 32.78C110.145 32.025 113.275 32.495 116.04 33.95C117.61 34.785 118.915 35.79 120.6 36.395C123.505 37.505 126.93 37.365 130 37.32C133.12 37.285 136.11 36.455 138.71 34.705C140.825 33.27 142.915 32.555 145.5 32.58C152.45 32.235 159.15 36.56 161.96 42.865C159.995 42.875 158.035 42.88 156.07 42.88C154.47 40.77 152.33 39.12 149.82 38.23C148.15 37.7 146.225 37.815 144.485 37.85C141.945 37.86 139.76 39.46 137.545 40.555C135.075 41.915 132.325 42.71 129.5 42.775C125.735 42.88 121.735 42.53 118.405 40.605C116.57 39.645 114.59 38.125 112.525 37.81C109.62 37.495 106.73 37.685 104.13 39.12C102.34 40.035 100.96 41.445 99.8049 43.065C97.9113 42.8982 96.0108 42.8214 94.1099 42.835C96.5349 37.55 101.35 33.78 107.095 32.78Z" fill="#DB7739"/>
<path d="M67.71 42.4851L67.765 42.3501C68.79 43.0301 69.835 42.8851 71 42.9101C72.865 42.8901 74.73 42.8801 76.595 42.8701C73.265 50.9201 71.91 59.6101 72.38 68.2951C72.2 66.9501 72.235 65.6401 72.295 64.2901C69.555 63.9701 66.765 64.2001 64 64.1301V61.2251C64.405 54.8301 65.55 48.5301 67.71 42.4851ZM94.11 42.8351C96.01 42.8301 97.905 42.8901 99.805 43.0651C97.86 46.3151 97.1 50.1101 98.255 53.7751C99.175 56.5001 101.095 58.1051 102.77 60.4451C102.675 61.6801 102.49 62.9001 102.305 64.1251C100.505 64.1351 98.705 64.1451 96.905 64.1401C96.815 62.9501 97.1 61.6701 96.325 60.6951C94.785 58.4201 93.38 56.2751 92.84 53.5251C92.33 49.8801 92.505 46.2001 94.11 42.8351ZM179.235 42.8251C182.285 43.0051 185.33 42.6801 188.35 43.0851C190.675 49.8551 191.89 56.9851 191.86 64.1451C189.1 64.1401 186.345 64.1301 183.59 64.1001C183.215 61.3201 183.365 58.5201 182.89 55.7551C182.155 51.3201 181.01 46.9601 179.235 42.8251ZM114.605 44.9201C115.55 45.8451 115.28 47.0351 114.405 47.8901C112.11 49.9851 109.47 51.7501 106.87 53.4451C105.89 54.1501 104.5 53.8201 103.345 53.8051C102.43 52.1001 102.55 50.3101 102.79 48.4601C103.925 43.4801 110.945 41.2301 114.605 44.9201ZM144.495 43.2451C145.99 43.1301 147.82 42.9851 149.12 43.8601C151.65 45.3701 153.37 48.0301 153.155 51.0401C153.11 52.3901 152.32 53.2001 151.575 54.2301C149.415 54.3801 148.18 53.1001 146.5 52.0151C144.76 50.7401 142.96 49.5251 141.31 48.1401C140.565 47.4751 139.955 46.4651 140.565 45.5001C141.215 44.0451 143.04 43.4851 144.495 43.2451ZM156.07 42.8801C158.035 42.8801 159.995 42.8751 161.96 42.8651C162.73 44.6801 163.36 46.4951 163.335 48.4951C163.335 50.7351 163.405 53.2451 162.7 55.3901C161.945 57.6501 160.595 59.5451 159.23 61.4701C159.21 62.3601 159.19 63.2501 159.18 64.1401C157.4 64.1194 155.62 64.1211 153.84 64.1451C153.695 62.6851 153.34 60.9001 153.86 59.5051C154.945 57.9701 156.4 56.8901 157.235 55.1451C158.425 53.0101 158.185 50.8451 158.175 48.4901C158.205 46.4201 157.155 44.5701 156.07 42.8801Z" fill="#D2D73C"/>
<path d="M96.905 64.1401C98.705 64.1451 100.505 64.1351 102.305 64.1251C102.24 64.6301 102.17 65.1401 102.105 65.6501C106.935 63.9001 112.2 63.9251 116.885 66.1151C120.675 67.7751 123.675 70.6901 125.76 74.2351C127.815 73.8101 131.08 73.6401 132.43 75.6001C132.235 77.9401 130.135 79.8451 127.775 79.9001C128.03 81.5351 128.195 83.1701 128.07 84.8301C126.46 84.8351 124.855 84.8401 123.245 84.8501C123.555 80.7301 122.26 76.6251 119.335 73.6601C115.92 69.9951 110.605 68.4001 105.73 69.5951C98.88 71.1901 94.125 77.8301 94.795 84.8401C93.25 84.8351 91.71 84.8701 90.165 84.8551L89.96 84.0951C89.755 78.1501 92.35 72.5351 96.89 68.7301C96.92 67.2001 96.915 65.6701 96.905 64.1401ZM183.59 64.1001C186.345 64.1301 189.1 64.1401 191.86 64.1451C191.86 71.1601 190.71 78.1751 188.445 84.8201C185.625 84.7301 182.63 85.0601 179.86 84.6651L179.775 84.3701C181.29 80.3701 182.415 76.2301 182.995 71.9901C183.385 69.3701 183.36 66.7501 183.59 64.1001ZM64 64.1301C66.765 64.2001 69.555 63.9701 72.295 64.2901C72.235 65.6401 72.2 66.9501 72.38 68.2951C73.01 73.9701 74.115 79.5101 76.24 84.8301C73.3 84.8251 70.365 84.8351 67.425 84.8451C65.425 79.0651 64.39 73.0501 64 66.9551V64.1301ZM153.84 64.1451C155.62 64.1211 157.4 64.1194 159.18 64.1401C159.13 68.1351 159.345 72.4501 158.6 76.3651C157.92 79.3651 156.39 82.2251 154.81 84.8451C152.965 84.8501 151.13 84.9001 149.29 84.6751C149.324 84.3444 149.361 84.0161 149.4 83.6901C150.555 81.9951 151.655 80.2951 152.41 78.3801C154.335 73.9551 154.515 68.8601 153.84 64.1451ZM137.265 68.3651C139.93 67.6651 143.8 69.0951 144.4 72.0251C144.625 73.1901 143.9 73.6301 142.915 73.9301C139.96 74.6701 136.85 74.9551 133.81 74.6951C133.535 73.9501 133.165 73.3501 133.415 72.5301C133.98 70.6951 135.45 69.0201 137.265 68.3651Z" fill="#45A446"/>
<path d="M103.575 76.8648C104.12 78.9998 104.71 81.1198 105.095 83.2948C105.86 81.3448 106.18 79.2598 106.91 77.3048C107.5 76.3448 109.685 76.9348 110.695 76.7448C111.715 78.8648 112.03 81.0348 112.565 83.3398C113.23 81.1898 113.77 79.0048 114.38 76.8448C115.823 76.7908 117.267 76.7841 118.71 76.8248C118.92 79.4898 117.475 82.2248 116.935 84.8298C111.59 84.8648 106.24 84.8098 100.895 84.8498C100.226 82.4163 99.5398 79.988 98.835 77.5648C99.745 76.2198 102.17 76.9248 103.575 76.8648Z" fill="#45A446"/>
<path d="M149.4 83.6899C149.361 84.0159 149.324 84.3443 149.29 84.6749C151.13 84.8999 152.965 84.8499 154.81 84.8449C151.883 89.4111 147.689 93.0252 142.74 95.2449C136.075 98.2099 128.635 99.3599 121.425 98.0299C115.78 102.725 107.865 103.925 101.155 100.855C94.6 97.9199 90.145 91.2849 89.96 84.0949L90.165 84.8549C91.71 84.8699 93.25 84.8349 94.795 84.8399C95.23 88.4949 96.905 91.8949 99.73 94.2849C103.955 97.9899 110.26 98.7999 115.295 96.2949C117.476 95.2106 119.349 93.5932 120.739 91.5925C122.128 89.5918 122.99 87.2726 123.245 84.8499C124.855 84.8399 126.46 84.8349 128.07 84.8299C127.795 87.9299 126.9 90.6849 125.365 93.3849C134.305 93.9999 143.695 90.8149 149.4 83.6899ZM179.775 84.3699L179.86 84.6649C182.63 85.0599 185.625 84.7299 188.445 84.8199C185.738 92.7341 181.512 100.044 176.005 106.34C173.165 106.23 170.325 106.3 167.485 106.295C166.565 106.325 165.77 106.115 164.92 105.785C171.44 99.8749 176.595 92.5849 179.775 84.3699ZM76.24 84.8299C79.4923 92.8519 84.5258 100.029 90.96 105.82C89.985 106.115 89.025 106.32 88 106.29C85.275 106.26 82.555 106.27 79.83 106.305C74.3382 100.027 70.1244 92.7373 67.425 84.8449C70.365 84.8349 73.3 84.8249 76.24 84.8299Z" fill="#5050DB"/>
<path d="M100.895 84.8501C106.24 84.8101 111.59 84.8651 116.935 84.8301C116.395 86.6851 115.945 88.5651 115.385 90.4151C115.19 90.9801 115.035 91.6501 114.305 91.6551C113.28 91.7351 112.215 91.7351 111.185 91.6501C110.395 91.6351 110.29 91.0701 110.075 90.4401C109.625 88.9601 109.31 87.4351 108.95 85.9351C108.37 87.8801 108.055 89.8301 107.235 91.7001C105.795 91.6701 104.35 91.6601 102.91 91.6451C102.07 89.4201 101.555 87.1301 100.895 84.8501Z" fill="#5050DB"/>
<path d="M90.9601 105.82L90.9751 105.83C95.9001 110.105 101.43 113.625 107.525 115.98C118.395 120.305 130.69 121.01 142 118.055C150.49 115.855 158.35 111.58 164.92 105.785C165.77 106.115 166.565 106.325 167.485 106.295C170.325 106.3 173.165 106.23 176.005 106.34C166.4 117.35 153.04 124.895 138.615 127.29C134.05 128.22 129.28 127.725 124.5 127.855C120.13 128.025 115.705 127.11 111.48 126.035C99.2401 122.81 88.1501 115.825 79.8301 106.305C82.5551 106.27 85.2751 106.26 88.0001 106.29C89.0251 106.32 89.9851 106.115 90.9601 105.82Z" fill="#7B3A79"/>
</g>
<defs>
<linearGradient id="paint0_linear_20189_75374" x1="148.82" y1="62.3871" x2="-19.768" y2="64.6871" gradientUnits="userSpaceOnUse">
<stop stop-color="#F8F29C"/>
<stop offset="0.165" stop-color="#F6DB2A"/>
<stop offset="0.333" stop-color="#F4A435"/>
<stop offset="0.55" stop-color="#E85A46"/>
<stop offset="0.699" stop-color="#B93483"/>
<stop offset="0.867" stop-color="#502B6E"/>
<stop offset="1" stop-color="#2A2136"/>
</linearGradient>
<clipPath id="clip0_20189_75374">
<rect width="192" height="128" fill="white"/>
</clipPath>
</defs>
</svg>

<svg xmlns="http://www.w3.org/2000/svg" viewBox="0 0 192 128"><circle cx="64" cy="64" r="64"/><path fill="url(#_ibgt)" d="M63.832 99.96a19.2 19.2 0 0 1-2.62-3.512c-1.872-2.944-5.008-9.856-5.016-17.456-6.62 3.864-14.256 4.616-17.768 4.464a19.2 19.2 0 0 1-3.944-.416q2.208 10.752 11.068 15.696 8.6 4.8 18.28 1.224m23.76-31.48a20.8 20.8 0 0 0 3.924-8.168q1.231-5.148.048-10.34l7-1.984a4.07 4.07 0 0 0 3.06-3.543 4.1 4.1 0 0 0-.172-1.641 4.08 4.08 0 0 0-1.96-2.572 4.08 4.08 0 0 0-3.22-.32l-7.808 2.216q-3.892-5.004-8.02-7.252-4.128-2.244-9.528-2.312l-2.292-8.08a4.08 4.08 0 0 0-1.964-2.568 4.08 4.08 0 0 0-3.22-.32 4.08 4.08 0 0 0-2.568 1.96 4.08 4.08 0 0 0-.324 3.22l1.984 7a21.6 21.6 0 0 0-8.732 5.608 22.4 22.4 0 0 0-4.576 7.04l23.36 2.88zM38.36 48.952a15.332 15.332 0 0 0 .116 30.664h.088c3.568.168 12.244-.816 18.42-5.812L69.248 52.76zm21.904 26.852 12.052-20.68 18.828 24.148a15.334 15.334 0 0 1-26.624 15.22l-.044-.08c-1.908-2.972-5.336-10.84-4.212-18.608"/><defs><linearGradient id="_ibgt" x1="148.82" x2="-19.768" y1="62.384" y2="64.684" gradientUnits="userSpaceOnUse"><stop stop-color="#f8f29c"/><stop offset=".165" stop-color="#f6db2a"/><stop offset=".333" stop-color="#f4a435"/><stop offset=".55" stop-color="#e85a46"/><stop offset=".699" stop-color="#b93483"/><stop offset=".867" stop-color="#502b6e"/><stop offset="1" stop-color="#2a2136"/></linearGradient></defs><circle cx="64" cy="64" r="60" fill="#fff" transform="translate(64)"/><path fill="#d43939" d="M125.04 0h5.265l.485.025.375.025c16.885.845 33.1 8.58 44.33 21.22-3.945.285-7.85-.105-11.775.415-6.855-5.72-15.015-9.82-23.75-11.72-9.965-2.205-20.57-1.615-30.215 1.725-6.41 2.205-12.335 5.62-17.55 9.94-3.95-.425-7.96-.18-11.935-.26a64.3 64.3 0 0 1 11.48-10.125C101.565 4.45 113.135.645 125.04 0"/><path fill="#db7739" d="m175.495 21.27.06.06a64.3 64.3 0 0 1 12.795 21.755c-3.02-.405-6.065-.08-9.115-.26-3.38-8.2-8.79-15.385-15.515-21.14 3.925-.52 7.83-.13 11.775-.415m-95.225.1c3.975.08 7.985-.165 11.935.26-6.8 5.71-12.17 13.055-15.61 21.24-1.865.01-3.73.02-5.595.04-1.165-.025-2.21.12-3.235-.56C70.57 34.64 74.8 27.48 80.27 21.37m26.825 11.41c3.05-.755 6.18-.285 8.945 1.17 1.57.835 2.875 1.84 4.56 2.445 2.905 1.11 6.33.97 9.4.925 3.12-.035 6.11-.865 8.71-2.615 2.115-1.435 4.205-2.15 6.79-2.125 6.95-.345 13.65 3.98 16.46 10.285-1.965.01-3.925.015-5.89.015-1.6-2.11-3.74-3.76-6.25-4.65-1.67-.53-3.595-.415-5.335-.38-2.54.01-4.725 1.61-6.94 2.705-2.47 1.36-5.22 2.155-8.045 2.22-3.765.105-7.765-.245-11.095-2.17-1.835-.96-3.815-2.48-5.88-2.795-2.905-.315-5.795-.125-8.395 1.31-1.79.915-3.17 2.325-4.325 3.945a60 60 0 0 0-5.695-.23c2.425-5.285 7.24-9.055 12.985-10.055"/><path fill="#d2d73c" d="m67.71 42.485.055-.135c1.025.68 2.07.535 3.235.56 1.865-.02 3.73-.03 5.595-.04-3.33 8.05-4.685 16.74-4.215 25.425-.18-1.345-.145-2.655-.085-4.005-2.74-.32-5.53-.09-8.295-.16v-2.905c.405-6.395 1.55-12.695 3.71-18.74m26.4.35c1.9-.005 3.795.055 5.695.23-1.945 3.25-2.705 7.045-1.55 10.71.92 2.725 2.84 4.33 4.515 6.67-.095 1.235-.28 2.455-.465 3.68-1.8.01-3.6.02-5.4.015-.09-1.19.195-2.47-.58-3.445-1.54-2.275-2.945-4.42-3.485-7.17-.51-3.645-.335-7.325 1.27-10.69m85.125-.01c3.05.18 6.095-.145 9.115.26 2.325 6.77 3.54 13.9 3.51 21.06-2.76-.005-5.515-.015-8.27-.045-.375-2.78-.225-5.58-.7-8.345-.735-4.435-1.88-8.795-3.655-12.93m-64.63 2.095c.945.925.675 2.115-.2 2.97-2.295 2.095-4.935 3.86-7.535 5.555-.98.705-2.37.375-3.525.36-.915-1.705-.795-3.495-.555-5.345 1.135-4.98 8.155-7.23 11.815-3.54m29.89-1.675c1.495-.115 3.325-.26 4.625.615 2.53 1.51 4.25 4.17 4.035 7.18-.045 1.35-.835 2.16-1.58 3.19-2.16.15-3.395-1.13-5.075-2.215-1.74-1.275-3.54-2.49-5.19-3.875-.745-.665-1.355-1.675-.745-2.64.65-1.455 2.475-2.015 3.93-2.255m11.575-.365c1.965 0 3.925-.005 5.89-.015.77 1.815 1.4 3.63 1.375 5.63 0 2.24.07 4.75-.635 6.895-.755 2.26-2.105 4.155-3.47 6.08-.02.89-.04 1.78-.05 2.67q-2.67-.031-5.34.005c-.145-1.46-.5-3.245.02-4.64 1.085-1.535 2.54-2.615 3.375-4.36 1.19-2.135.95-4.3.94-6.655.03-2.07-1.02-3.92-2.105-5.61"/><path fill="#45a446" d="M96.905 64.14c1.8.005 3.6-.005 5.4-.015-.065.505-.135 1.015-.2 1.525 4.83-1.75 10.095-1.725 14.78.465 3.79 1.66 6.79 4.575 8.875 8.12 2.055-.425 5.32-.595 6.67 1.365-.195 2.34-2.295 4.245-4.655 4.3.255 1.635.42 3.27.295 4.93-1.61.005-3.215.01-4.825.02.31-4.12-.985-8.225-3.91-11.19-3.415-3.665-8.73-5.26-13.605-4.065-6.85 1.595-11.605 8.235-10.935 15.245-1.545-.005-3.085.03-4.63.015l-.205-.76c-.205-5.945 2.39-11.56 6.93-15.365.03-1.53.025-3.06.015-4.59m86.685-.04c2.755.03 5.51.04 8.27.045 0 7.015-1.15 14.03-3.415 20.675-2.82-.09-5.815.24-8.585-.155l-.085-.295c1.515-4 2.64-8.14 3.22-12.38.39-2.62.365-5.24.595-7.89M64 64.13c2.765.07 5.555-.16 8.295.16-.06 1.35-.095 2.66.085 4.005.63 5.675 1.735 11.215 3.86 16.535-2.94-.005-5.875.005-8.815.015-2-5.78-3.035-11.795-3.425-17.89zm89.84.015q2.67-.036 5.34-.005c-.05 3.995.165 8.31-.58 12.225-.68 3-2.21 5.86-3.79 8.48-1.845.005-3.68.055-5.52-.17q.051-.496.11-.985c1.155-1.695 2.255-3.395 3.01-5.31 1.925-4.425 2.105-9.52 1.43-14.235m-16.575 4.22c2.665-.7 6.535.73 7.135 3.66.225 1.165-.5 1.605-1.485 1.905-2.955.74-6.065 1.025-9.105.765-.275-.745-.645-1.345-.395-2.165.565-1.835 2.035-3.51 3.85-4.165"/><path fill="#45a446" d="M103.575 76.865c.545 2.135 1.135 4.255 1.52 6.43.765-1.95 1.085-4.035 1.815-5.99.59-.96 2.775-.37 3.785-.56 1.02 2.12 1.335 4.29 1.87 6.595.665-2.15 1.205-4.335 1.815-6.495a66 66 0 0 1 4.33-.02c.21 2.665-1.235 5.4-1.775 8.005-5.345.035-10.695-.02-16.04.02a506 506 0 0 0-2.06-7.285c.91-1.345 3.335-.64 4.74-.7"/><path fill="#5050db" d="M149.4 83.69q-.059.489-.11.985c1.84.225 3.675.175 5.52.17a27.9 27.9 0 0 1-12.07 10.4c-6.665 2.965-14.105 4.115-21.315 2.785-5.645 4.695-13.56 5.895-20.27 2.825-6.555-2.935-11.01-9.57-11.195-16.76l.205.76c1.545.015 3.085-.02 4.63-.015.435 3.655 2.11 7.055 4.935 9.445 4.225 3.705 10.53 4.515 15.565 2.01a14.47 14.47 0 0 0 7.95-11.445c1.61-.01 3.215-.015 4.825-.02-.275 3.1-1.17 5.855-2.705 8.555 8.94.615 18.33-2.57 24.035-9.695m30.375.68.085.295c2.77.395 5.765.065 8.585.155a64.3 64.3 0 0 1-12.44 21.52c-2.84-.11-5.68-.04-8.52-.045-.92.03-1.715-.18-2.565-.51 6.52-5.91 11.675-13.2 14.855-21.415m-103.535.46a57.1 57.1 0 0 0 14.72 20.99c-.975.295-1.935.5-2.96.47-2.725-.03-5.445-.02-8.17.015a64.1 64.1 0 0 1-12.405-21.46c2.94-.01 5.875-.02 8.815-.015"/><path fill="#5050db" d="M100.895 84.85c5.345-.04 10.695.015 16.04-.02-.54 1.855-.99 3.735-1.55 5.585-.195.565-.35 1.235-1.08 1.24-1.025.08-2.09.08-3.12-.005-.79-.015-.895-.58-1.11-1.21-.45-1.48-.765-3.005-1.125-4.505-.58 1.945-.895 3.895-1.715 5.765-1.44-.03-2.885-.04-4.325-.055-.84-2.225-1.355-4.515-2.015-6.795"/><path fill="#7b3a79" d="m90.96 105.82.015.01c4.925 4.275 10.455 7.795 16.55 10.15 10.87 4.325 23.165 5.03 34.475 2.075 8.49-2.2 16.35-6.475 22.92-12.27.85.33 1.645.54 2.565.51 2.84.005 5.68-.065 8.52.045-9.605 11.01-22.965 18.555-37.39 20.95-4.565.93-9.335.435-14.115.565-4.37.17-8.795-.745-13.02-1.82-12.24-3.225-23.33-10.21-31.65-19.73 2.725-.035 5.445-.045 8.17-.015 1.025.03 1.985-.175 2.96-.47"/></svg>
